src/assets/icons/calendar-overdue.svg

<svg width="24" height="24" viewBox="0 0 24 24" fill="none" xmlns="http://www.w3.org/2000/svg">
<path d="M5.75 8.75C5.75 7.64543 6.64543 6.75 7.75 6.75H17.75C18.8546 6.75 19.75 7.64543 19.75 8.75V17.75C19.75 18.8546 18.8546 19.75 17.75 19.75H7.75C6.64543 19.75 5.75 18.8546 5.75 17.75V8.75Z" stroke="#314158" stroke-width="1.5" stroke-linejoin="round"/>
<path d="M12.75 11L12.75 14" stroke="#314158" stroke-width="1.5" stroke-linecap="round" stroke-linejoin="round"/>
<path d="M12.7469 15.6C12.6882 15.6 12.6308 15.6174 12.5819 15.65C12.5331 15.6827 12.4951 15.729 12.4726 15.7833C12.4501 15.8375 12.4443 15.8972 12.4557 15.9548C12.4672 16.0124 12.4954 16.0653 12.537 16.1068C12.5785 16.1483 12.6314 16.1766 12.689 16.1881C12.7466 16.1995 12.8062 16.1936 12.8605 16.1712C12.9147 16.1487 12.9611 16.1106 12.9937 16.0618C13.0264 16.013 13.0438 15.9556 13.0438 15.8969C13.0438 15.8181 13.0125 15.7426 12.9568 15.687C12.9011 15.6313 12.8256 15.6 12.7469 15.6" stroke="#314158" stroke-width="1.2" stroke-linecap="round" stroke-linejoin="round"/>
<path d="M9.75 4.5V7.28" stroke="#314158" stroke-width="1.5" stroke-linecap="round"/>
<path d="M15.75 4.5V7.28" stroke="#314158" stroke-width="1.5" stroke-linecap="round"/>
</svg>

<svg fill="none" viewBox="0 0 24 24"><path stroke="currentColor" stroke-linejoin="round" stroke-width="1.5" d="M5.75 8.75a2 2 0 0 1 2-2h10a2 2 0 0 1 2 2v9a2 2 0 0 1-2 2h-10a2 2 0 0 1-2-2z"/><path stroke="currentColor" stroke-linecap="round" stroke-linejoin="round" stroke-width="1.5" d="M12.75 11v3"/><path stroke="currentColor" stroke-linecap="round" stroke-linejoin="round" stroke-width="1.2" d="M12.747 15.6a.297.297 0 1 0 0 .595.297.297 0 0 0 0-.595"/><path stroke="currentColor" stroke-linecap="round" stroke-width="1.5" d="M9.75 4.5v2.78M15.75 4.5v2.78"/></svg>
